png/nextflow.svg

<svg xmlns="http://www.w3.org/2000/svg" width="200pt" height="200pt" viewBox="0 0 200 200"><path fill="#0dc09d" d="M28.85 28.99c16.16.74 31.95 7.4 44.04 18.12 14.36 12.42 22.85 31 23.91 49.85-8.77.64-17.62.61-26.39.04-1.12-17.01-12.7-32.64-28.52-38.88-4.23-1.51-8.71-2.05-13.03-3.26-.43-8.61-.38-17.26-.01-25.87m86.13 30.99c12.47-18.24 33.81-30.15 55.9-30.99.21 8.61.28 17.23-.04 25.84-4.54 1.24-9.28 1.73-13.69 3.4-12.13 4.96-21.97 15.29-26.11 27.75-1.06 3.58-1.51 7.3-2.24 10.96-8.65.53-17.34.32-26 .12.03-13.21 4.88-26.19 12.18-37.08m-44.43 43.37c8.78-.31 17.57-.19 26.34-.07-.35 10.57-3.46 21-8.28 30.38-8.97 17.06-25.28 30.05-43.84 35.17-5.15 1.64-10.54 2.58-15.96 2.4-.36-8.4-.22-16.81-.11-25.21 4.19-1.5 8.64-2.06 12.84-3.54 16.13-6.01 28.03-21.89 29.01-39.13m32.31-.24c8.67-.18 17.35-.29 26.01.06.74 3.61 1.18 7.29 2.17 10.85 4.01 12.51 13.72 23.03 25.86 28.04 4.46 1.73 9.18 2.59 13.84 3.54.55 8.52.27 17.08.16 25.61-5.62.24-11.22-.74-16.56-2.49-19.97-5.69-37.2-20.48-45.54-39.53-3.34-8.27-6.1-17.07-5.94-26.08"/></svg>

<?xml version="1.0" encoding="UTF-8" ?>
<!DOCTYPE svg PUBLIC "-//W3C//DTD SVG 1.1//EN" "http://www.w3.org/Graphics/SVG/1.1/DTD/svg11.dtd">
<svg width="200pt" height="200pt" viewBox="0 0 200 200" version="1.1" xmlns="http://www.w3.org/2000/svg">
<g id="#0dc09dff">
<path fill="#0dc09d" opacity="1.00" d=" M 28.85 28.99 C 45.01 29.73 60.80 36.39 72.89 47.11 C 87.25 59.53 95.74 78.11 96.80 96.96 C 88.03 97.60 79.18 97.57 70.41 97.00 C 69.29 79.99 57.71 64.36 41.89 58.12 C 37.66 56.61 33.18 56.07 28.86 54.86 C 28.43 46.25 28.48 37.60 28.85 28.99 Z" />
<path fill="#0dc09d" opacity="1.00" d=" M 114.98 59.98 C 127.45 41.74 148.79 29.83 170.88 28.99 C 171.09 37.60 171.16 46.22 170.84 54.83 C 166.30 56.07 161.56 56.56 157.15 58.23 C 145.02 63.19 135.18 73.52 131.04 85.98 C 129.98 89.56 129.53 93.28 128.80 96.94 C 120.15 97.47 111.46 97.26 102.80 97.06 C 102.83 83.85 107.68 70.87 114.98 59.98 Z" />
<path fill="#0dc09d" opacity="1.00" d=" M 70.55 103.35 C 79.33 103.04 88.12 103.16 96.89 103.28 C 96.54 113.85 93.43 124.28 88.61 133.66 C 79.64 150.72 63.33 163.71 44.77 168.83 C 39.62 170.47 34.23 171.41 28.81 171.23 C 28.45 162.83 28.59 154.42 28.70 146.02 C 32.89 144.52 37.34 143.96 41.54 142.48 C 57.67 136.47 69.57 120.59 70.55 103.35 Z" />
<path fill="#0dc09d" opacity="1.00" d=" M 102.86 103.11 C 111.53 102.93 120.21 102.82 128.87 103.17 C 129.61 106.78 130.05 110.46 131.04 114.02 C 135.05 126.53 144.76 137.05 156.90 142.06 C 161.36 143.79 166.08 144.65 170.74 145.60 C 171.29 154.12 171.01 162.68 170.90 171.21 C 165.28 171.45 159.68 170.47 154.34 168.72 C 134.37 163.03 117.14 148.24 108.80 129.19 C 105.46 120.92 102.70 112.12 102.86 103.11 Z" />
</g>
</svg>
